docs/themes/v2/source/images/design/warning-icon.svg

<svg fill="none" height="14" viewBox="0 0 17 14" width="17" xmlns="http://www.w3.org/2000/svg"><path clip-rule="evenodd" d="m15.3383 13.1507c.7912 0 1.269-.8752.8412-1.5407l-7.16835-11.150758c-.39364-.612323-1.28872-.612323-1.68236.000001l-7.168333 11.150757c-.427829.6655.050013 1.5407.841183 1.5407zm-7.14236-9.99991c-.46724 0-.846.37877-.846.846v4.2c0 .46723.37876.846.846.846.46723 0 .846-.37877.846-.846v-4.2c0-.46723-.37877-.846-.846-.846zm-.714 8.44801c.19999.2.43999.3.72.3.28 0 .52399-.1.73199-.3.2-.2.3-.44.3-.72s-.09999-.524-.3-.732c-.20799-.20001-.45199-.30001-.73199-.30001-.28001 0-.52001.1-.72.30001-.20801.208-.31201.452-.31201.732s.104.52.31201.72z" fill="#ffa663" fill-rule="evenodd"/></svg>

<svg width="17" height="14" viewBox="0 0 17 14" fill="none" xmlns="http://www.w3.org/2000/svg">
<path fill-rule="evenodd" clip-rule="evenodd" d="M15.3383 13.1507C16.1295 13.1507 16.6073 12.2755 16.1795 11.61L9.01115 0.459242C8.61751 -0.153081 7.72243 -0.153081 7.32879 0.459243L0.160457 11.61C-0.267372 12.2755 0.21047 13.1507 1.00164 13.1507H15.3383ZM8.19594 3.15079C7.7287 3.15079 7.34994 3.52956 7.34994 3.99679V8.19679C7.34994 8.66402 7.7287 9.04279 8.19594 9.04279V9.04279C8.66317 9.04279 9.04194 8.66402 9.04194 8.19679V3.99679C9.04194 3.52956 8.66317 3.15079 8.19594 3.15079V3.15079ZM7.48194 11.5988C7.68193 11.7988 7.92193 11.8988 8.20194 11.8988C8.48194 11.8988 8.72593 11.7988 8.93393 11.5988C9.13393 11.3988 9.23393 11.1588 9.23393 10.8788C9.23393 10.5988 9.13394 10.3548 8.93393 10.1468C8.72594 9.94679 8.48194 9.84679 8.20194 9.84679C7.92193 9.84679 7.68193 9.94679 7.48194 10.1468C7.27393 10.3548 7.16993 10.5988 7.16993 10.8788C7.16993 11.1588 7.27393 11.3988 7.48194 11.5988Z" fill="#FFA663"/>
</svg>
